X:1
T:60 Lessons for 2 Guitars, Op.168 - Joseph Küffner (1776 - 1856)
T:Leçon No.56
T:60 Lessons for 2 Guitars, Op.168 "à l'usage des commençants"
T:Joseph Küffner (1776 - 1856)
%%score { ( 1 2 ) ( 3 4 ) } { ( 5 6 ) ( 7 8 ) }
L:1/8
Q:1/8=108
M:6/8
K:F
V:1 treble-8 nm="Classical Guitar"
V:2 treble-8 
V:3 tab stafflines=6 strings=E2,A2,D3,G3,B3,E4 nostems nm="Guitare classique [Tablature]"
V:4 tab stafflines=6 strings=E2,A2,D3,G3,B3,E4 nostems 
V:5 treble-8 nm="Guitare classique"
V:6 treble-8 
V:7 tab stafflines=6 strings=E2,A2,D3,G3,B3,E4 nostems nm="Guitare classique [Tablature]"
V:8 tab stafflines=6 strings=E2,A2,D3,G3,B3,E4 nostems 
V:1
"^Andante""_" z/ .A/.c/.f/.a/.f/ .c'2 z | z/ .E/.G/.c/.e/.c/ g2 z | z/ A/c/f/a/c'/ d'2 z | %3
 a2 g f2 z | c2 A f2 c | B2 G g2 c | cff fec | ca g/f/ f2 e | c2 f gf d/B/ | =B2 g (ag) e/c/ | %10
 a>e (g/4f/4).e/4.d/4 c2 A | G>_Bd/c/ B2 A | Acf a>fc/A/ | c>BA/G/ F2 z | [CA]2 [A,F] [Ac]2 [FA] | %15
 G2 (B/A/) G2 z | A2 A B2 (A/G/) | F2 (A/G/) F2 z |] %18
V:2
 F3 z2 z | C3 z2 z | F3 z2 z | c2 B A2 z | x6 | x6 | x6 | x6 | x6 | x6 | x6 | x6 | x6 | x6 | x6 | %15
 C3 C2 x | F2 _E D3 | x6 |] %18
V:3
 x/ !4!A,/ !3!C/ !2!F/ !1!A/ !2!F/ !1!c2 x | x/ !4!E,/ !3!G,/ !2!C/ !1!E/ !2!C/ !1!G2 x | %2
 x/ !4!A,/ !3!C/ !2!F/ !1!A/ !1!c/ !1!d2 x | !1!A2 !1!G !1!F2 x | !2!C2 !3!A, !1!F2 !2!C | %5
 !3!B,2 !3!G, !1!G2 !2!C | !2!C !1!F !1!F !1!F !1!E !2!C | !2!C !1!A !1!G/ !1!F/ !1!F2 !1!E | %8
 !2!C2 !1!F !1!G !1!F !2!D/ !3!B,/ | !2!=B,2 !1!G (!1!A !1!G) !1!E/ !2!C/ | %10
 !1!A3/2 !1!E/ (!1!G/4 !1!F/4) !1!E/4 !2!D/4 !2!C2 !3!A, | %11
 !3!G,3/2 !3!_B,/ !2!D/ !2!C/ !3!B,2 !3!A, | !3!A, !2!C !1!F !1!A3/2 !1!F/ !2!C/ !3!A,/ | %13
 !2!C3/2 !3!B,/ !3!A,/ !3!G,/ !4!F,2 x | [!5!C,!3!A,]2 [!5!A,,!4!F,] [!3!A,!2!C]2 [!4!F,!3!A,] | %15
 !3!G,2 (!3!B,/ !3!A,/) !3!G,2 x | !3!A,2 !3!A, !3!B,2 (!3!A,/ !3!G,/) | %17
 !4!F,2 (!3!A,/ !3!G,/) !4!F,2 x |] %18
V:4
 !5!F,3 x2 x | !5!C,3 x2 x | !5!F,3 x2 x | !3!C2 !3!B, !3!A,2 x | x6 | x6 | x6 | x6 | x6 | x6 | %10
 x6 | x6 | x6 | x6 | x6 | !5!C,3 !5!C,2 x | !4!F,2 !4!_E, !4!D,3 | x6 |] %18
V:5
"_" !arpeggio![F,Acf]2 z z2 z | !arpeggio![CBce]2 z z2 z | %2
 !arpeggio![F,Acf]2 z !arpeggio![B,Bdg]2 z | z/ A/c/f/ C/[Bce]/x[Acf] z | %4
 z/ F/A/c/F/A/ z/ F/A/c/F/A/ | z/ E/B/c/E/B/ z/ E/B/c/E/B/ | z/ F/A/c/F/A/ z/ E/B/c/E/B/ | %7
 z/ F/A/c/F/A/ z/ E/G/c/E/G/ | z/ A/c/A/F/A/ z/ B/d/B/G/B/ | z/ G/=B/G/D/G/ z/ G/c/G/E/G/ | %10
 z/ A/c/A/B/d/ z/ A/c/A/F/A/ | z/ B/c/B/E/B/ z/ A/c/A/F/A/ | z/ F/A/c/F/A/ z/ F/A/c/F/A/ | %13
 z/ E/B/c/E/B/x[FAc] z | F,/F/F,/F/F,/F/ F,/F/F,/F/F,/F/ | z/ E/G/E/C/E/ z/ E/G/E/C/E/ | %16
 F,/F/F,/F/F,/F/ .B,/.B/.B,/.B,/.B,/.B,/ | z/ F/A/F/ C/E/ F,F z |] %18
V:6
 x6 | x6 | x6 | C2 C F3 | F,3 F,3 | C3 C3 | F,3 G,3 | F,3 C3 | F3 B,3 | G,3 C3 | F2 F F3 | E3 F3 | %12
 F,3 F,3 | C3 F,3 | x6 | C3 C3 | x6 | C2 C x3 |] %18
V:7
 [!6!F,,!3!A,!2!C!1!F]2 x x2 x | [!5!C,!3!B,!2!C!1!E]2 x x2 x | %2
 [!6!F,,!3!A,!2!C!1!F]2 x [!5!B,,!3!B,!2!D!1!G]2 x | %3
 x/ !3!A,/ !2!C/ !1!F/ !5!C,/ [!3!B,!2!C!1!E]/ !5!x [!3!A,!2!C!1!F] x | %4
 x/ !4!F,/ !3!A,/ !2!C/ !4!F,/ !3!A,/ x/ !4!F,/ !3!A,/ !2!C/ !4!F,/ !3!A,/ | %5
 x/ !4!E,/ !3!B,/ !2!C/ !4!E,/ !3!B,/ x/ !4!E,/ !3!B,/ !2!C/ !4!E,/ !3!B,/ | %6
 x/ !4!F,/ !3!A,/ !2!C/ !4!F,/ !3!A,/ x/ !4!E,/ !3!B,/ !2!C/ !4!E,/ !3!B,/ | %7
 x/ !4!F,/ !3!A,/ !2!C/ !4!F,/ !3!A,/ x/ !4!E,/ !3!G,/ !2!C/ !4!E,/ !3!G,/ | %8
 x/ !3!A,/ !2!C/ !3!A,/ !4!F,/ !3!A,/ x/ !3!B,/ !2!D/ !3!B,/ !3!G,/ !3!B,/ | %9
 x/ !3!G,/ !2!=B,/ !3!G,/ !4!D,/ !3!G,/ x/ !3!G,/ !2!C/ !3!G,/ !4!E,/ !3!G,/ | %10
 x/ !3!A,/ !2!C/ !3!A,/ !3!B,/ !2!D/ x/ !3!A,/ !2!C/ !3!A,/ !4!F,/ !3!A,/ | %11
 x/ !3!B,/ !2!C/ !3!B,/ !4!E,/ !3!B,/ x/ !3!A,/ !2!C/ !3!A,/ !4!F,/ !3!A,/ | %12
 x/ !4!F,/ !3!A,/ !2!C/ !4!F,/ !3!A,/ x/ !4!F,/ !3!A,/ !2!C/ !4!F,/ !3!A,/ | %13
 x/ !4!E,/ !3!B,/ !2!C/ !4!E,/ !3!B,/ x [!4!F,!3!A,!2!C] x | %14
 !6!F,,/ !4!F,/ !6!F,,/ !4!F,/ !6!F,,/ !4!F,/ !6!F,,/ !4!F,/ !6!F,,/ !4!F,/ !6!F,,/ !4!F,/ | %15
 x/ !4!E,/ !3!G,/ !4!E,/ !5!C,/ !4!E,/ x/ !4!E,/ !3!G,/ !4!E,/ !5!C,/ !4!E,/ | %16
 !6!F,,/ !4!F,/ !6!F,,/ !4!F,/ !6!F,,/ !4!F,/ !5!B,,/ !3!B,/ !5!B,,/ !5!B,,/ !5!B,,/ !5!B,,/ | %17
 x/ !4!F,/ !3!A,/ !4!F,/ !5!C,/ !4!E,/ !6!F,, !4!F, x |] %18
V:8
 x6 | x6 | x6 | !5!C,2 x !4!F,3 | !6!F,,3 !6!F,,3 | !5!C,3 !5!C,3 | !6!F,,3 !6!G,,3 | %7
 !6!F,,3 !5!C,3 | !4!F,3 !5!B,,3 | !6!G,,3 !5!C,3 | !4!F,2 !4!F, !4!F,3 | !4!E,3 !4!F,3 | %12
 !6!F,,3 !6!F,,3 | !5!C,3 !6!F,,3 | x6 | !5!C,3 !5!C,3 | x6 | !5!C,2 x x3 |] %18

